img/svg/editors/megaphone.svg

<svg width="24" height="24" viewBox="0 0 24 24" fill="none" xmlns="http://www.w3.org/2000/svg">
<path d="M4.58594 16.667L4.63574 16.7607L7.04199 21.3027L7.04785 21.3164L7.15723 21.5801H8.75879L8.68945 21.0908L8.68652 21.0703L8.68555 21.0674L8.02148 16.6182L7.96973 16.2744L7.62305 16.2539L6.32715 16.1836C5.89471 16.163 5.46197 16.145 5.0293 16.1299L4.58594 16.1143V16.667ZM21.75 2.57129C21.4374 2.57129 21.138 2.69597 20.917 2.91699C20.696 3.13802 20.5713 3.43742 20.5713 3.75V20.25C20.5713 20.5626 20.696 20.862 20.917 21.083C21.138 21.304 21.4374 21.4287 21.75 21.4287C22.0626 21.4287 22.362 21.304 22.583 21.083C22.804 20.862 22.9287 20.5626 22.9287 20.25V3.75C22.9287 3.43742 22.804 3.13802 22.583 2.91699C22.362 2.69597 22.0626 2.57129 21.75 2.57129ZM19.3037 5.39355C15.8543 7.1668 11.6181 8.11266 7.4707 8.39648L7.07129 8.42383V15.5791L7.47656 15.6016C7.74307 15.6164 8.00803 15.6346 8.27148 15.6553H8.27441C12.0857 15.9358 15.8113 16.7583 19.2998 18.5967L19.9287 18.9277V5.07324L19.3037 5.39355ZM5.98438 8.47461C4.99167 8.51094 3.99813 8.53624 3.00488 8.55176C2.49252 8.55832 2.00307 8.76564 1.6416 9.12891C1.27965 9.49266 1.07478 9.98394 1.07129 10.4971V13.5C1.07129 14.4962 1.83047 15.3195 2.80566 15.4297L3.00391 15.4424C3.99644 15.4539 4.98885 15.4812 5.98047 15.5254L6.42871 15.5459V8.45801L5.98438 8.47461ZM19.9287 19.6807L19.7129 19.5576C16.4046 17.6587 12.8502 16.7422 9.17383 16.3779L8.62695 16.3242L8.70801 16.8682L9.31543 20.9355L9.31641 20.9434L9.31836 20.9521C9.3474 21.1067 9.34206 21.2657 9.30273 21.418C9.26327 21.5705 9.19041 21.7127 9.08984 21.834C8.98928 21.9552 8.86327 22.0532 8.7207 22.1201C8.57817 22.187 8.42209 22.2217 8.26465 22.2217H7.44336C7.2351 22.2217 7.03075 22.1609 6.85645 22.0469C6.68235 21.933 6.54543 21.7706 6.46191 21.5801L6.45508 21.5654L6.44727 21.5508L3.67285 16.3154L3.55371 16.0918L3.30078 16.0879C3.19954 16.0862 3.09831 16.0844 2.99707 16.083H2.99512C2.31342 16.0762 1.66201 15.8011 1.18164 15.3174C0.761391 14.8941 0.501094 14.3413 0.441406 13.7529L0.428711 13.499V10.501C0.431131 9.81908 0.701085 9.16543 1.18066 8.68066C1.6605 8.19577 2.31203 7.91863 2.99414 7.90918C4.24078 7.89227 5.48704 7.85426 6.73242 7.7959H6.73438C11.3404 7.56277 16.0698 6.51091 19.7119 4.44238L19.9287 4.31934V3.75C19.9287 3.26693 20.1203 2.8035 20.4619 2.46191C20.8035 2.12033 21.2669 1.92871 21.75 1.92871C22.2331 1.92871 22.6965 2.12033 23.0381 2.46191C23.3797 2.8035 23.5713 3.26693 23.5713 3.75V20.25C23.5713 20.7331 23.3797 21.1965 23.0381 21.5381C22.6965 21.8797 22.2331 22.0713 21.75 22.0713C21.2669 22.0713 20.8035 21.8797 20.4619 21.5381C20.1203 21.1965 19.9287 20.7331 19.9287 20.25V19.6807Z" fill="#FBFBFB" stroke="#FBFBFB" stroke-width="0.857143"/>
</svg>

<svg width="24" height="24" fill="none" xmlns="http://www.w3.org/2000/svg"><path d="M4.586 16.667l.05.094 2.406 4.542.006.013.11.264h1.6l-.069-.49-.002-.02-.001-.003-.665-4.449-.051-.344-.347-.02-1.296-.07a93.198 93.198 0 00-1.298-.054l-.443-.016v.553zM21.75 2.571a1.178 1.178 0 00-1.179 1.179v16.5a1.178 1.178 0 002.358 0V3.75a1.178 1.178 0 00-1.179-1.179zm-2.446 2.823c-3.45 1.773-7.686 2.719-11.833 3.002l-.4.028v7.155l.406.023c.266.014.531.033.794.053h.003c3.812.28 7.537 1.103 11.026 2.942l.629.33V5.074l-.625.32zm-13.32 3.08c-.992.037-1.986.062-2.98.078a1.959 1.959 0 00-1.933 1.945V13.5c0 .996.76 1.82 1.735 1.93l.198.012c.992.012 1.985.04 2.976.083l.449.02V8.459l-.445.017zM19.93 19.682l-.216-.123c-3.308-1.9-6.863-2.816-10.54-3.18l-.546-.054.081.544.607 4.068.001.007.002.01a1.072 1.072 0 01-1.053 1.269h-.822a1.073 1.073 0 01-.981-.642l-.007-.015-.008-.014-2.774-5.236-.12-.223-.252-.004-.304-.005h-.002a2.592 2.592 0 01-2.554-2.33L.43 13.5v-2.998A2.601 2.601 0 012.995 7.91c1.247-.017 2.493-.055 3.738-.113h.002c4.606-.233 9.336-1.285 12.978-3.354l.217-.123v-.57a1.821 1.821 0 113.642 0v16.5a1.821 1.821 0 11-3.642 0v-.57z" fill="#FBFBFB" stroke="#FBFBFB" stroke-width=".857"/></svg>
